src/assets/duotone/Login1.svg

<svg width="24" height="24" viewBox="0 0 24 24"  xmlns="http://www.w3.org/2000/svg">
<path opacity="0.4" d="M9 7.2V16.79C9 20 11 22 14.2 22H16.79C19.99 22 21.99 20 21.99 16.8V7.2C22 4 20 2 16.8 2H14.2C11 2 9 4 9 7.2Z" />
<path d="M12.43 8.12002L15.78 11.47C16.07 11.76 16.07 12.24 15.78 12.53L12.43 15.88C12.14 16.17 11.66 16.17 11.37 15.88C11.08 15.59 11.08 15.11 11.37 14.82L13.44 12.75H2.75C2.34 12.75 2 12.41 2 12C2 11.59 2.34 11.25 2.75 11.25H13.44L11.37 9.18002C11.22 9.03002 11.15 8.84002 11.15 8.65002C11.15 8.46002 11.22 8.27002 11.37 8.12002C11.66 7.82002 12.13 7.82002 12.43 8.12002Z" />
</svg>

<?xml version="1.0" encoding="UTF-8"?>
<svg width="24" height="24" viewBox="0 0 24 24" xmlns="http://www.w3.org/2000/svg">
 <path d="M9 7.2V16.79C9 20 11 22 14.2 22H16.79C19.99 22 21.99 20 21.99 16.8V7.2C22 4 20 2 16.8 2H14.2C11 2 9 4 9 7.2Z" opacity=".4"/>
 <path d="m12.43 8.12 3.35 3.35c0.29 0.29 0.29 0.77 0 1.06l-3.35 3.35c-0.29 0.29-0.77 0.29-1.06 0s-0.29-0.77 0-1.06l2.07-2.07h-10.69c-0.41 0-0.75-0.34-0.75-0.75s0.34-0.75 0.75-0.75h10.69l-2.07-2.07c-0.15-0.15-0.22-0.34-0.22-0.53s0.07-0.38 0.22-0.53c0.29-0.3 0.76-0.3 1.06 0z"/>
</svg>
